_includes/icons/ios-explanation-mark-2.svg

<svg fill="#666" height="50" viewBox="0 0 50 50" width="50" xmlns="http://www.w3.org/2000/svg"><path d="m25 2c-12.690705 0-23 10.309295-23 23s10.309295 23 23 23 23-10.309295 23-23-10.309295-23-23-23zm0 2c11.609824 0 21 9.390176 21 21s-9.390176 21-21 21-21-9.390176-21-21 9.390176-21 21-21zm-1.199219 10.300781c-.3 0-.40039.198438-.40039.398438v13.5c0 .3.20039.40039.40039.40039h2.298828c.3 0 .400391-.20039.400391-.40039v-13.5c0-.3-.200391-.398438-.400391-.398438zm0 18c-.3 0-.40039.198438-.40039.398438v2.601562c0 .3.20039.398438.40039.398438h2.398438c.3 0 .40039-.198438.40039-.398438v-2.601562c0-.3-.20039-.398438-.40039-.398438z"/></svg>

<svg xmlns="http://www.w3.org/2000/svg" viewBox="0 0 50 50" width="50" height="50" fill="#666"><path d="M 25 2 C 12.309295 2 2 12.309295 2 25 C 2 37.690705 12.309295 48 25 48 C 37.690705 48 48 37.690705 48 25 C 48 12.309295 37.690705 2 25 2 z M 25 4 C 36.609824 4 46 13.390176 46 25 C 46 36.609824 36.609824 46 25 46 C 13.390176 46 4 36.609824 4 25 C 4 13.390176 13.390176 4 25 4 z M 23.800781 14.300781 C 23.500781 14.300781 23.400391 14.499219 23.400391 14.699219 L 23.400391 28.199219 C 23.400391 28.499219 23.600781 28.599609 23.800781 28.599609 L 26.099609 28.599609 C 26.399609 28.599609 26.5 28.399219 26.5 28.199219 L 26.5 14.699219 C 26.5 14.399219 26.299609 14.300781 26.099609 14.300781 L 23.800781 14.300781 z M 23.800781 32.300781 C 23.500781 32.300781 23.400391 32.499219 23.400391 32.699219 L 23.400391 35.300781 C 23.400391 35.600781 23.600781 35.699219 23.800781 35.699219 L 26.199219 35.699219 C 26.499219 35.699219 26.599609 35.500781 26.599609 35.300781 L 26.599609 32.699219 C 26.599609 32.399219 26.399219 32.300781 26.199219 32.300781 L 23.800781 32.300781 z"/></svg>
